!!!OTL: WIE DIE BLUEMLEIN DRAUSSEN ZITTERN
!!!ARE: Europa, Mitteleuropa, Deutschland, Schwaben
!!!SCT: E0779
!!!YEM: Copyright 1995, estate of Helmut Schaffrath.
**kern
*ICvox
*Ivox
*M3/4
*k[]
*C:
{8.G
16A
=1
4G
4E
8.c
16d
=2
4c
4B}
{8G
8G
=3
4.B
8A
8G
8F
=4
2E}
{8G
8G
=5
4.B
8A
8G
8F
=6
2E}
{8G
8G
=7
4.B
8A
8G
8F
=8
2E
8r}
{8G
=9
8G
8e
4.c
8B
=10
8A
8f
4.d}
{8c
=11
8.B
16A
8G
8G
8.A
16G
=12
4G
4E
8r}
{8G
=13
8G
8e
4.c
8B
=14
8A
8f
4.d}
{8c
=15
8.B
16A
8G
8B
8.e
16d
=16
2c}
==
!!!AGN: Abschieds - Lied, Liebe
!!!ONB: ESAC (Essen Associative Code) Database: ERK2
!!!AMT: simple triple
!!!AIN: vox
!!!EED: Helmut Schaffrath
!!!EEV: 1.0
*-
